dist/images/joy/advantages1.svg

<svg width="126" height="126" viewBox="0 0 126 126" fill="none" xmlns="http://www.w3.org/2000/svg">
<circle cx="63" cy="63" r="61.5" stroke="#E2704C" stroke-width="3"/>
<g clip-path="url(#clip0)">
<path d="M72.3651 72.8941V65.2719H76.986L63.7503 52.5667L50.514 65.2719H55.1349V71.2508C52.0228 71.0828 49.0573 70.9823 46.312 70.9227V62.0467C49.869 61.9197 52.7242 58.9882 52.7242 55.4009V46.2927C52.7242 42.6245 49.7396 39.6404 46.0714 39.6404H42.9774C39.3097 39.6404 36.3251 42.6245 36.3251 46.2927V55.4009C36.3251 58.9886 39.1803 61.9201 42.7378 62.0467V70.8636C40.1325 70.8338 37.7939 70.8338 35.8043 70.8338H34V88.9925H95V78.3145L93.8063 77.8943C87.0511 75.5161 79.6634 73.9398 72.3651 72.8941ZM39.8998 55.4005V46.2922C39.8998 44.595 41.2806 43.2141 42.9779 43.2141H46.0718C47.7691 43.2141 49.1499 44.5954 49.1499 46.2922V55.4005C49.1499 57.0172 47.8976 58.3455 46.312 58.4683V50.8466H42.7378V58.4683C41.1522 58.3455 39.8998 57.0172 39.8998 55.4005ZM63.7503 57.5208L68.1012 61.6977H59.3988L63.7503 57.5208ZM58.7091 65.2719H68.7909V72.4213C65.3582 72.0047 61.9725 71.6981 58.7091 71.4714V65.2719ZM91.4258 85.4183H37.5742V74.4085C49.9802 74.4225 73.0348 74.7133 91.4258 80.8561V85.4183Z" fill="#373737"/>
<path d="M78.7287 44.2687H89.3946C92.4853 44.2687 94.9998 41.7547 94.9998 38.664C94.9998 36.0532 93.2052 33.8532 90.7847 33.2333C90.0578 30.2339 87.3501 28 84.1305 28H83.9928C80.7732 28 78.0655 30.2339 77.3386 33.2333C74.9181 33.8528 73.1235 36.0527 73.1235 38.664C73.124 41.7542 75.6381 44.2687 78.7287 44.2687ZM78.7287 36.633H80.7211V34.8459C80.7211 33.0421 82.1889 31.5742 83.9933 31.5742H84.1305C85.9349 31.5742 87.4023 33.0421 87.4023 34.8459V36.633H89.3946C90.5143 36.633 91.4256 37.5443 91.4256 38.664C91.4256 39.7838 90.5148 40.6945 89.3946 40.6945H78.7287C77.609 40.6945 76.6978 39.7838 76.6978 38.664C76.6982 37.5443 77.609 36.633 78.7287 36.633Z" fill="#373737"/>
</g>
<defs>
<clipPath id="clip0">
<rect width="61" height="61" fill="white" transform="translate(34 28)"/>
</clipPath>
</defs>
</svg>

<svg width="126" height="126" fill="none" xmlns="http://www.w3.org/2000/svg"><circle cx="63" cy="63" r="61.5" stroke="#E2704C" stroke-width="3"/><g clip-path="url(#clip0)" fill="#373737"><path d="M72.365 72.894v-7.622h4.621L63.75 52.567 50.514 65.272h4.62v5.979a274.142 274.142 0 00-8.822-.328v-8.876c3.557-.127 6.412-3.059 6.412-6.646v-9.108a6.66 6.66 0 00-6.653-6.653h-3.094a6.66 6.66 0 00-6.652 6.653V55.4a6.658 6.658 0 006.413 6.646v8.817c-2.605-.03-4.944-.03-6.934-.03H34v18.159h61V78.315l-1.194-.42c-6.755-2.379-14.143-3.955-21.44-5zM39.9 55.4v-9.108a3.082 3.082 0 013.078-3.078h3.094a3.082 3.082 0 013.078 3.078V55.4a3.08 3.08 0 01-2.838 3.068v-7.621h-3.574v7.621A3.081 3.081 0 0139.9 55.4zm23.85 2.12l4.351 4.178H59.4l4.351-4.177zm-5.04 7.752h10.08v7.15a197.37 197.37 0 00-10.08-.95v-6.2zm32.716 20.146H37.574v-11.01c12.406.014 35.46.305 53.852 6.448v4.562zM78.729 44.269h10.666A5.611 5.611 0 0095 38.664c0-2.61-1.795-4.81-4.215-5.43-.727-3-3.435-5.234-6.654-5.234h-.138c-3.22 0-5.927 2.234-6.654 5.233a5.615 5.615 0 00-4.215 5.431 5.612 5.612 0 005.605 5.605zm0-7.636h1.992v-1.787a3.276 3.276 0 013.272-3.272h.138a3.275 3.275 0 013.271 3.272v1.787h1.993a2.031 2.031 0 010 4.061H78.729c-1.12 0-2.031-.91-2.031-2.03 0-1.12.911-2.031 2.03-2.031z"/></g><defs><clipPath id="clip0"><path fill="#fff" transform="translate(34 28)" d="M0 0h61v61H0z"/></clipPath></defs></svg>
